!!!!SEGMENT: pl-kk--kk-i-111--016-002_anonim--deo-gratias-ad-libitum-2dum.krn
!!!cenid: 18xx:2590
!!!COM: Anonim
!!!COM-rismid: pe30004985
!!!CDT:
!!!CNT:
!!!GTL: Deo gratias
!!!OTL: Ad Libitum 2dum
!!!OMV: 002
!!!PDT: 1824
!!!AGN: Sacred
!!!SMS-siglum: PL-Kk
!!!SMS-shelfmark: Kk.I.111
!!!SMS-shelfwork: 016-002 G
!!!SMS-variant:
!!!SMS-altvar:
!!!NIFC-rismid: 1001157705
!!!URL-scan: http://repozytorium.nifc.pl/skany/pl-kk-nut--i-111
!!!ONB-nifc: UWAGA: A, T1, T2. Podział na poszególne Deo gratias. A: skan 0004 (m.in)
!!!key:
**kern	**text	**kern	**text	**kern	**text
*part3	*part3	*part2	*part2	*part1	*part1
*staff3	*staff3	*staff2	*staff2	*staff1	*staff1
*Itenor	*	*Itenor	*	*Ialto	*
*I"Tenore Vagante.	*	*I"Tenore Chorale.	*	*I"Alto.	*
*I'T 2	*	*I'T 1	*	*I'A	*
*clefC4	*	*clefC4	*	*clefC3	*
*k[]	*	*k[]	*	*k[]	*
*C:	*	*C:	*	*C:	*
*M2/1	*	*M2/1	*	*M2/1	*
*met(c|)	*	*met(c|)	*	*met(c|)	*
*all\right	*	*all\right	*	*all\right	*
*2\right	*	*2\right	*	*2\right	*
=1	=1	=1	=1	=1	=1
!LO:TX:a:t=4	!	!LO:TX:t=P:problem:kreska pseudotaktowa	!	!	!
!	!	!	!	!LO:TX:t=P:problem:kreska pseudotaktowa	!
!	!	!	!	!LO:TX:a:t=2	!
00r	.	1G	De-	0r	.
.	.	4A\	.	.	.
.	.	4G\	.	.	.
.	.	4A\	.	.	.
!	!	!LO:TX:t=P:problem:kreska pseudotaktowa	!	!	!
.	.	4Bn\	.	.	.
=2-	=2	=2	=2	=2	=2
!LO:TX:t=P:problem:kreska pseudotaktowa	!	!LO:TX:t=P:problem:kreska pseudotaktowa	!	!LO:TX:t=P:problem:kreska pseudotaktowa	!
.	.	1c	.	1c	De-
.	.	2c\	.	4e\	.
.	.	.	.	4c\	.
.	.	1c\	o	4e\	.
!	!	!	!	!LO:TX:t=P:problem:kreska pseudotaktowa	!
.	.	.	.	4f\	.
=3	=3	=3-	=3	=3	=3
!LO:TX:t=P:problem:kreska pseudotaktowa	!	!	!	!	!
1G	De-	.	.	2g\	-[o]
!	!	!LO:TX:t=P:problem:kreska pseudotaktowa	!	!LO:TX:t=P:problem:kreska pseudotaktowa	!
.	.	2Bn\	.	2g\	gra-
4A\	o	4c\	gra-	1.fn	.
4G\	.	4B\	.	.	.
4A\	.	4c\	.	.	.
!LO:TX:t=P:problem:kreska pseudotaktowa	!	!LO:TX:t=P:problem:kreska pseudotaktowa	!	!	!
4Bn\	.	4d\	.	.	.
=4	=4	=4	=4	=4-	=4
1.c	gra-	2e\	.	.	.
!	!	!LO:TX:t=P:problem:kreska pseudotaktowa	!	!LO:TX:t=P:problem:kreska pseudotaktowa	!
.	.	2e\	.	2e\	.
.	.	2.e\	.	2.g\	.
!LO:TX:t=P:problem:kreska pseudotaktowa	!	!	!	!	!
2c\	-ti-	.	.	.	.
.	.	8d\L	-ti-	8f\L	-ti-
!	!	!LO:TX:t=P:problem:kreska pseudotaktowa	!	!LO:TX:t=P:problem:kreska pseudotaktowa	!
.	.	8c\J	.	8e\J	.
=5	=5	=5	=5	=5	=5
2Bn\	-as	2Bn\	-as	2d\	-as
!LO:TX:t=P:problem:kreska pseudotaktowa	!	!	!	!LO:TX:t=P:problem:kreska pseudotaktowa	!
2e\	De-	1c	De-	2g\	De-
2.d\	.	.	.	2f\	-o
!	!	!LO:TX:t=P:problem:kreska pseudotaktowa	!	!LO:TX:t=P:problem:kreska pseudotaktowa	!
.	.	2B\	.	2d\	.
!LO:TX:t=P:problem:kreska pseudotaktowa	!	!	!	!	!
4d\	-o	.	.	.	.
=6	=6	=6	=6	=6	=6
2c\	gra-	2c\	-o	2e\	gra-
!LO:TX:t=P:problem:kreska pseudotaktowa	!	!	!	!	!
2e\	-ti-	1c	gra-	1a	.
!LO:TX:t=P:problem:kreska pseudotaktowa	!	!	!	!	!
1d	-as	.	.	.	.
.	.	1B\	.	1gn\	.
=7	=7	=7-	=7	=7-	=7
!LO:TX:t=P:problem:kreska pseudotaktowa	!	!	!	!	!
1c	De-	.	.	.	.
.	.	1A	.	1fn	.
!LO:TX:t=P:problem:kreska pseudotaktowa	!	!	!	!	!
1Bn	-o	.	.	.	.
.	.	1G/	.	1e\	.
=8	=8	=8-	=8	=8-	=8
!LO:TX:t=P:problem:kreska pseudotaktowa	!	!	!	!	!
1A	.	.	.	.	.
!	!	!LO:TX:t=P:problem:kreska pseudotaktowa	!	!LO:TX:t=P:problem:kreska pseudotaktowa	!
.	.	2F#X/	-ti-	2d\	.
!	!	!	!	!LO:LB:g=original	!
2A\	.	2G/	-as	2d\	.
!LO:TX:t=P:problem:kreska pseudotaktowa	!	!LO:TX:t=P:problem:kreska pseudotaktowa	!	!LO:TX:t=P:problem:kreska pseudotaktowa	!
2e\	.	2G/	De-	2g\	.
!	!	!LO:LB:g=original	!	!	!
=9	=9	=9	=9	=9	=9
!	!	!LO:TX:t=P:problem:kreska pseudotaktowa	!	!	!
2c\	gra-	1A	-o	2e\	.
!LO:TX:t=P:problem:kreska pseudotaktowa	!	!	!	!LO:TX:t=P:problem:kreska pseudotaktowa	!
2d\	.	.	.	2f\	-ti-
!	!	!LO:TX:t=P:problem:kreska pseudotaktowa	!	!	!
2B\	.	1G	.	2d\	-as
!LO:TX:t=P:problem:kreska pseudotaktowa	!	!	!	!LO:TX:t=P:problem:kreska pseudotaktowa	!
2c\	.	.	.	2e\	De-
=10	=10	=10	=10	=10	=10
!	!	!LO:TX:t=P:problem:kreska pseudotaktowa	!	!	!
2A\	.	1Fn	.	2f\	-o
!LO:TX:t=P:problem:kreska pseudotaktowa	!	!	!	!LO:TX:t=P:problem:kreska pseudotaktowa	!
2B\	.	.	.	2d\	.
0c	.	2E/	gra-	2e\	gra-
.	.	1A\	.	1f\	.
=11	=11	=11-	=11	=11-	=11
!LO:TX:t=P:problem:kreska pseudotaktowa	!	!	!	!	!
.	.	.	.	.	.
!	!	!LO:TX:t=P:problem:kreska pseudotaktowa	!	!LO:TX:t=P:problem:kreska pseudotaktowa	!
.	.	2Gn/	.	2e\	.
2.c\	.	2.A/	.	2.f\	.
!LO:TX:t=P:problem:kreska pseudotaktowa	!	!LO:TX:t=P:problem:kreska pseudotaktowa	!	!LO:TX:t=P:problem:kreska pseudotaktowa	!
4c\	-ti-	4A/	-ti-	4f\	-ti-
=12	=12	=12	=12	=12	=12
0c;	-as.	0G;	-as.	0e;	-as
==	==	==	==	==	==
*-	*-	*-	*-	*-	*-
!!!system-decoration: [(s1,s2,s3)]
!!!AIN: 1 alto 2 tenor
!!!ENC: Kamil Watkowski
!!!END: 2021-08-05
